dist/images/text-logo1.svg

<svg width="82" height="39" viewBox="0 0 82 39" fill="none" xmlns="http://www.w3.org/2000/svg">
<path d="M14.4144 11.2963C14.4144 11.8702 14.2943 12.4107 14.054 12.9179C13.8138 13.4117 13.4201 13.8455 12.8729 14.2192C12.339 14.5796 11.6383 14.8665 10.7708 15.0801C9.91657 15.2936 8.86219 15.4004 7.6076 15.4004C6.90023 15.4004 6.2062 15.347 5.52552 15.2402C4.85819 15.1335 4.21755 14.98 3.6036 14.7798C3.003 14.5796 2.44244 14.3393 1.92192 14.0591C1.41475 13.7654 0.974307 13.4451 0.6006 13.0981L1.6016 11.8969C2.36236 12.5509 3.24991 13.0514 4.26426 13.3984C5.27861 13.7321 6.39305 13.8989 7.6076 13.8989C8.95561 13.8989 9.9099 13.712 10.4705 13.3383C11.031 12.9646 11.3113 12.4508 11.3113 11.7968C11.3113 11.2896 11.0911 10.8625 10.6506 10.5155C10.2102 10.1685 9.46279 9.82817 8.4084 9.4945L4.6046 8.2933C3.35001 7.8929 2.4024 7.38573 1.76176 6.77178C1.12112 6.14449 0.8008 5.35036 0.8008 4.3894C0.8008 3.89557 0.914247 3.42177 1.14114 2.96798C1.38138 2.50085 1.74841 2.09377 2.24224 1.74676C2.73607 1.3864 3.36336 1.10612 4.12412 0.905919C4.89823 0.692372 5.82582 0.585599 6.9069 0.585599C7.56089 0.585599 8.2082 0.638986 8.84884 0.745759C9.50283 0.852532 10.1234 1.00602 10.7107 1.20622C11.3113 1.40642 11.8652 1.65333 12.3724 1.94696C12.8929 2.22724 13.34 2.54089 13.7137 2.8879L12.7127 4.0891C11.9519 3.43511 11.0978 2.94129 10.1501 2.60762C9.20253 2.26061 8.12145 2.0871 6.9069 2.0871C5.9059 2.0871 5.15181 2.26061 4.64464 2.60762C4.15081 2.95463 3.9039 3.38173 3.9039 3.8889C3.9039 4.16918 3.95061 4.41609 4.04404 4.62964C4.13747 4.82984 4.29095 5.02337 4.5045 5.21022C4.73139 5.38373 5.02502 5.55056 5.38538 5.71072C5.74574 5.85753 6.19285 6.01769 6.72672 6.1912L10.5105 7.3924C11.725 7.77945 12.6793 8.28663 13.3734 8.91392C14.0674 9.54121 14.4144 10.3353 14.4144 11.2963ZM22.022 4.1892C22.4491 4.1892 22.8762 4.22924 23.3033 4.30932C23.7304 4.37605 24.1374 4.47615 24.5245 4.60962C24.9249 4.72974 25.2919 4.88323 25.6256 5.07008C25.9726 5.25693 26.2729 5.46381 26.5265 5.6907L25.7257 6.8919C25.1785 6.47815 24.6179 6.15783 24.044 5.93094C23.4835 5.70405 22.8762 5.5906 22.2222 5.5906C21.7417 5.5906 21.3013 5.67068 20.9009 5.83084C20.5005 5.97765 20.1535 6.22457 19.8598 6.57158C19.5662 6.90525 19.3326 7.33901 19.1591 7.87288C18.999 8.40675 18.9189 9.04739 18.9189 9.7948C18.9189 10.5422 18.999 11.1829 19.1591 11.7167C19.3326 12.2506 19.5729 12.691 19.8799 13.038C20.1868 13.3717 20.5539 13.6186 20.981 13.7788C21.4214 13.9256 21.9019 13.999 22.4224 13.999C23.0764 13.999 23.6837 13.8856 24.2442 13.6587C24.8181 13.4318 25.3787 13.1114 25.9259 12.6977L26.7267 13.8989C26.4731 14.1258 26.1728 14.3327 25.8258 14.5195C25.4921 14.7064 25.1251 14.8665 24.7247 15C24.3376 15.1201 23.9306 15.2135 23.5035 15.2803C23.0764 15.3604 22.6493 15.4004 22.2222 15.4004C21.2746 15.4004 20.4071 15.2736 19.6196 15.02C18.8455 14.7798 18.1848 14.4261 17.6376 13.959C17.0904 13.4785 16.6633 12.8912 16.3563 12.1972C16.0627 11.5032 15.9159 10.7024 15.9159 9.7948C15.9159 8.90057 16.0627 8.10645 16.3563 7.41242C16.6633 6.70505 17.0837 6.11779 17.6176 5.65066C18.1515 5.17018 18.7921 4.80982 19.5395 4.56958C20.2869 4.31599 21.1144 4.1892 22.022 4.1892ZM39.7444 15H36.9416V8.6937C36.9416 7.73274 36.7014 7.04539 36.2209 6.63164C35.7404 6.20455 35.0464 5.991 34.1388 5.991H31.5362V15H28.7334V0.985999H31.5362V4.5896H34.1388C36.0474 4.5896 37.4554 4.93661 38.363 5.63064C39.2839 6.31132 39.7444 7.33234 39.7444 8.6937V15ZM48.0441 14.0991C48.4712 14.0991 48.8716 14.019 49.2453 13.8589C49.619 13.6987 49.946 13.4518 50.2263 13.1181C50.5066 12.7711 50.7268 12.324 50.8869 11.7768C51.0604 11.2296 51.1472 10.5689 51.1472 9.7948C51.1472 9.02069 51.0604 8.36003 50.8869 7.81282C50.7268 7.26561 50.5066 6.82517 50.2263 6.4915C49.946 6.14449 49.619 5.8909 49.2453 5.73074C48.8716 5.57058 48.4712 5.4905 48.0441 5.4905C47.617 5.4905 47.2166 5.57058 46.8429 5.73074C46.4692 5.8909 46.1422 6.14449 45.8619 6.4915C45.5816 6.82517 45.3547 7.26561 45.1812 7.81282C45.0211 8.36003 44.941 9.02069 44.941 9.7948C44.941 10.5689 45.0211 11.2296 45.1812 11.7768C45.3547 12.324 45.5816 12.7711 45.8619 13.1181C46.1422 13.4518 46.4692 13.6987 46.8429 13.8589C47.2166 14.019 47.617 14.0991 48.0441 14.0991ZM48.0441 4.1892C48.9383 4.1892 49.7591 4.31599 50.5066 4.56958C51.2673 4.80982 51.9146 5.17018 52.4485 5.65066C52.9824 6.11779 53.3961 6.70505 53.6897 7.41242C53.9967 8.10645 54.1502 8.90057 54.1502 9.7948C54.1502 10.7024 53.9967 11.5032 53.6897 12.1972C53.3961 12.8912 52.9824 13.4785 52.4485 13.959C51.9146 14.4261 51.2673 14.7798 50.5066 15.02C49.7591 15.2736 48.9383 15.4004 48.0441 15.4004C47.1365 15.4004 46.309 15.2736 45.5616 15.02C44.8142 14.7798 44.1736 14.4261 43.6397 13.959C43.1058 13.4785 42.6854 12.8912 42.3784 12.1972C42.0848 11.5032 41.938 10.7024 41.938 9.7948C41.938 8.90057 42.0848 8.10645 42.3784 7.41242C42.6854 6.70505 43.1058 6.11779 43.6397 5.65066C44.1736 5.17018 44.8142 4.80982 45.5616 4.56958C46.309 4.31599 47.1365 4.1892 48.0441 4.1892ZM47.2433 1.8869C47.2433 2.2873 47.1032 2.64099 46.8229 2.94796C46.5559 3.24159 46.1956 3.3884 45.7418 3.3884C45.288 3.3884 44.921 3.24159 44.6407 2.94796C44.3738 2.64099 44.2403 2.2873 44.2403 1.8869C44.2403 1.4865 44.3738 1.13949 44.6407 0.845859C44.921 0.538886 45.288 0.385399 45.7418 0.385399C46.1822 0.385399 46.5426 0.538886 46.8229 0.845859C47.1032 1.13949 47.2433 1.4865 47.2433 1.8869ZM51.8479 1.8869C51.8479 2.2873 51.7078 2.64099 51.4275 2.94796C51.1605 3.24159 50.8002 3.3884 50.3464 3.3884C49.8926 3.3884 49.5256 3.24159 49.2453 2.94796C48.9784 2.64099 48.8449 2.2873 48.8449 1.8869C48.8449 1.4865 48.9784 1.13949 49.2453 0.845859C49.5256 0.538886 49.8926 0.385399 50.3464 0.385399C50.7868 0.385399 51.1472 0.538886 51.4275 0.845859C51.7078 1.13949 51.8479 1.4865 51.8479 1.8869ZM67.4674 15H64.6646V8.6937C64.6646 7.73274 64.4244 7.04539 63.9439 6.63164C63.4634 6.20455 62.7694 5.991 61.8618 5.991H59.2592V15H56.4564V4.5896H61.8618C63.7704 4.5896 65.1784 4.93661 66.086 5.63064C67.0069 6.31132 67.4674 7.33234 67.4674 8.6937V15ZM76.1675 13.999C76.8215 13.999 77.4288 13.8856 77.9893 13.6587C78.5632 13.4318 79.1238 13.1114 79.671 12.6977L80.4718 13.8989C80.2182 14.1258 79.9179 14.3327 79.5709 14.5195C79.2372 14.7064 78.8702 14.8665 78.4698 15C78.0827 15.1201 77.6757 15.2135 77.2486 15.2803C76.8215 15.3604 76.3944 15.4004 75.9673 15.4004C75.0197 15.4004 74.1522 15.2736 73.3647 15.02C72.5906 14.7798 71.9299 14.4261 71.3827 13.959C70.8355 13.4785 70.4084 12.8912 70.1014 12.1972C69.8078 11.5032 69.661 10.7024 69.661 9.7948C69.661 8.90057 69.8011 8.10645 70.0814 7.41242C70.375 6.70505 70.7754 6.11779 71.2826 5.65066C71.8031 5.17018 72.4171 4.80982 73.1245 4.56958C73.8318 4.31599 74.6126 4.1892 75.4668 4.1892C76.2676 4.1892 77.0217 4.30932 77.7291 4.54956C78.4364 4.7898 79.0504 5.14349 79.5709 5.61062C80.0914 6.06441 80.5052 6.61829 80.8121 7.27228C81.1191 7.92627 81.2726 8.66701 81.2726 9.4945V10.8959H72.7241C72.8842 12.0037 73.2646 12.7978 73.8652 13.2783C74.4791 13.7588 75.2466 13.999 76.1675 13.999ZM75.4668 5.4905C75.0797 5.4905 74.7194 5.56391 74.3857 5.71072C74.0521 5.85753 73.7584 6.0911 73.5048 6.41142C73.2646 6.73174 73.0644 7.14549 72.9042 7.65266C72.7574 8.15983 72.6773 8.77378 72.664 9.4945H78.2696C78.2696 8.80047 78.1895 8.19987 78.0294 7.6927C77.8692 7.18553 77.6557 6.77178 77.3887 6.45146C77.1351 6.11779 76.8348 5.87755 76.4878 5.73074C76.1542 5.57058 75.8138 5.4905 75.4668 5.4905ZM8.6086 23.986C9.6096 23.986 10.5038 24.0994 11.2913 24.3263C12.0921 24.5399 12.7661 24.8602 13.3133 25.2873C13.8605 25.701 14.2809 26.2149 14.5746 26.8288C14.8682 27.4294 15.015 28.1168 15.015 28.8909C15.015 29.665 14.8682 30.359 14.5746 30.973C14.2809 31.5736 13.8605 32.0874 13.3133 32.5145C12.7661 32.9283 12.0921 33.2486 11.2913 33.4755C10.5038 33.689 9.6096 33.7958 8.6086 33.7958H4.3043V38H1.4014V23.986H8.6086ZM4.3043 25.4875V32.2943H8.6086C9.66299 32.2943 10.4771 32.0207 11.051 31.4735C11.6383 30.9129 11.9319 30.0521 11.9319 28.8909C11.9319 27.7297 11.6383 26.8756 11.051 26.3283C10.4771 25.7678 9.66299 25.4875 8.6086 25.4875H4.3043ZM18.1189 27.7898C18.1189 26.4818 18.526 25.4541 19.3401 24.7067C20.1542 23.9593 21.3154 23.5856 22.8236 23.5856C23.3308 23.5856 23.8379 23.6523 24.3451 23.7858C24.8656 23.9193 25.3261 24.0861 25.7265 24.2863L25.1259 25.5876C24.8723 25.4408 24.5586 25.3073 24.1849 25.1872C23.8112 25.0537 23.4242 24.987 23.0238 24.987C22.7435 24.987 22.4766 25.0404 22.223 25.1472C21.9694 25.2539 21.7425 25.4208 21.5423 25.6477C21.3554 25.8612 21.202 26.1482 21.0818 26.5085C20.9751 26.8689 20.9217 27.296 20.9217 27.7898V27.99H24.0248V29.3914H20.9217V38H18.1189V29.3914H16.217V27.99H18.1189V27.7898ZM31.2304 37.0991C31.6575 37.0991 32.0579 37.019 32.4316 36.8589C32.8053 36.6987 33.1323 36.4518 33.4126 36.1181C33.6929 35.7711 33.9131 35.324 34.0733 34.7768C34.2468 34.2296 34.3335 33.5689 34.3335 32.7948C34.3335 32.0207 34.2468 31.36 34.0733 30.8128C33.9131 30.2656 33.6929 29.8252 33.4126 29.4915C33.1323 29.1445 32.8053 28.8909 32.4316 28.7307C32.0579 28.5706 31.6575 28.4905 31.2304 28.4905C30.8033 28.4905 30.4029 28.5706 30.0292 28.7307C29.6555 28.8909 29.3285 29.1445 29.0482 29.4915C28.768 29.8252 28.5411 30.2656 28.3676 30.8128C28.2074 31.36 28.1273 32.0207 28.1273 32.7948C28.1273 33.5689 28.2074 34.2296 28.3676 34.7768C28.5411 35.324 28.768 35.7711 29.0482 36.1181C29.3285 36.4518 29.6555 36.6987 30.0292 36.8589C30.4029 37.019 30.8033 37.0991 31.2304 37.0991ZM31.2304 27.1892C32.1246 27.1892 32.9455 27.316 33.6929 27.5696C34.4536 27.8098 35.101 28.1702 35.6348 28.6507C36.1687 29.1178 36.5824 29.705 36.8761 30.4124C37.183 31.1064 37.3365 31.9006 37.3365 32.7948C37.3365 33.7024 37.183 34.5032 36.8761 35.1972C36.5824 35.8912 36.1687 36.4785 35.6348 36.959C35.101 37.4261 34.4536 37.7798 33.6929 38.02C32.9455 38.2736 32.1246 38.4004 31.2304 38.4004C30.3228 38.4004 29.4954 38.2736 28.7479 38.02C28.0005 37.7798 27.3599 37.4261 26.826 36.959C26.2922 36.4785 25.8717 35.8912 25.5648 35.1972C25.2711 34.5032 25.1243 33.7024 25.1243 32.7948C25.1243 31.9006 25.2711 31.1064 25.5648 30.4124C25.8717 29.705 26.2922 29.1178 26.826 28.6507C27.3599 28.1702 28.0005 27.8098 28.7479 27.5696C29.4954 27.316 30.3228 27.1892 31.2304 27.1892ZM40.1526 28.991H38.2507V27.5896H40.1526V24.3864H42.9554V27.5896H46.0585V28.991H42.9554V34.1962C42.9554 34.7034 43.0088 35.1371 43.1156 35.4975C43.2357 35.8445 43.3892 36.1315 43.576 36.3584C43.7762 36.5719 44.0031 36.7321 44.2567 36.8388C44.5103 36.9456 44.7772 36.999 45.0575 36.999C45.4579 36.999 45.845 36.9389 46.2187 36.8188C46.5924 36.6854 46.906 36.5452 47.1596 36.3984L47.7602 37.6997C47.3598 37.8999 46.8994 38.0667 46.3788 38.2002C45.8717 38.3337 45.3645 38.4004 44.8573 38.4004C43.3491 38.4004 42.188 38.0267 41.3738 37.2793C40.5597 36.5319 40.1526 35.5042 40.1526 34.1962V28.991ZM54.7594 36.999C55.4134 36.999 56.0207 36.8856 56.5812 36.6587C57.1551 36.4318 57.7157 36.1114 58.2629 35.6977L59.0637 36.8989C58.8101 37.1258 58.5098 37.3327 58.1628 37.5195C57.8291 37.7064 57.4621 37.8665 57.0617 38C56.6746 38.1201 56.2676 38.2135 55.8405 38.2803C55.4134 38.3604 54.9863 38.4004 54.5592 38.4004C53.6116 38.4004 52.744 38.2736 51.9566 38.02C51.1825 37.7798 50.5218 37.4261 49.9746 36.959C49.4274 36.4785 49.0003 35.8912 48.6933 35.1972C48.3997 34.5032 48.2529 33.7024 48.2529 32.7948C48.2529 31.9006 48.393 31.1064 48.6733 30.4124C48.9669 29.705 49.3673 29.1178 49.8745 28.6507C50.395 28.1702 51.009 27.8098 51.7164 27.5696C52.4237 27.316 53.2045 27.1892 54.0587 27.1892C54.8595 27.1892 55.6136 27.3093 56.321 27.5496C57.0283 27.7898 57.6423 28.1435 58.1628 28.6106C58.6833 29.0644 59.0971 29.6183 59.404 30.2723C59.711 30.9263 59.8645 31.667 59.8645 32.4945V33.8959H51.316C51.4761 35.0037 51.8565 35.7978 52.4571 36.2783C53.071 36.7588 53.8385 36.999 54.7594 36.999ZM54.0587 28.4905C53.6716 28.4905 53.3113 28.5639 52.9776 28.7107C52.6439 28.8575 52.3503 29.0911 52.0967 29.4114C51.8565 29.7317 51.6563 30.1455 51.4961 30.6527C51.3493 31.1598 51.2692 31.7738 51.2559 32.4945H56.8615C56.8615 31.8005 56.7814 31.1999 56.6213 30.6927C56.4611 30.1855 56.2475 29.7718 55.9806 29.4515C55.727 29.1178 55.4267 28.8776 55.0797 28.7307C54.746 28.5706 54.4057 28.4905 54.0587 28.4905Z" fill="#E1AEAD"/>
</svg>

<svg width="82" height="39" fill="none" xmlns="http://www.w3.org/2000/svg"><path d="M14.414 11.296a3.74 3.74 0 01-.36 1.622c-.24.494-.634.928-1.181 1.301-.534.36-1.235.648-2.102.861-.854.214-1.909.32-3.163.32-.708 0-1.402-.053-2.082-.16a12.613 12.613 0 01-1.922-.46c-.601-.2-1.162-.44-1.682-.72A7.33 7.33 0 01.6 13.097l1-1.201a8.018 8.018 0 002.663 1.501c1.015.334 2.129.5 3.344.5 1.348 0 2.302-.186 2.862-.56.561-.373.841-.887.841-1.541 0-.507-.22-.934-.66-1.282-.44-.347-1.188-.687-2.243-1.02L4.605 8.293c-1.255-.4-2.203-.907-2.843-1.521C1.122 6.144.8 5.35.8 4.389c0-.493.113-.967.34-1.421.24-.467.607-.874 1.101-1.221.494-.36 1.121-.64 1.882-.841.774-.214 1.702-.32 2.783-.32.654 0 1.301.053 1.942.16.654.107 1.274.26 1.862.46.6.2 1.154.447 1.661.741.52.28.968.594 1.342.94l-1 1.203a7.945 7.945 0 00-2.563-1.481c-.947-.347-2.029-.52-3.243-.52-1.001 0-1.755.173-2.262.52-.494.347-.741.774-.741 1.28 0 .281.047.528.14.742.093.2.247.393.46.58.227.174.521.34.881.5.36.148.808.308 1.342.481l3.784 1.201c1.214.387 2.168.895 2.862 1.522s1.041 1.421 1.041 2.382zm7.608-7.107c.427 0 .854.04 1.281.12.427.067.834.167 1.221.3.4.12.768.274 1.102.461.347.187.647.394.9.62l-.8 1.202a7.154 7.154 0 00-1.682-.961 4.81 4.81 0 00-1.822-.34c-.48 0-.92.08-1.321.24a2.46 2.46 0 00-1.041.74c-.294.334-.527.768-.7 1.302-.161.534-.241 1.174-.241 1.922 0 .747.08 1.388.24 1.922.174.534.414.974.72 1.321.308.334.675.58 1.102.74.44.148.92.221 1.441.221a4.81 4.81 0 001.822-.34 7.156 7.156 0 001.682-.961l.8 1.2a4.648 4.648 0 01-.9.622c-.334.186-.7.347-1.101.48-.387.12-.794.213-1.222.28a6.94 6.94 0 01-1.28.12c-.948 0-1.816-.126-2.603-.38-.774-.24-1.435-.594-1.982-1.061a5.005 5.005 0 01-1.282-1.762c-.293-.694-.44-1.495-.44-2.402 0-.894.147-1.689.44-2.383a4.883 4.883 0 011.262-1.761A5.217 5.217 0 0119.54 4.57c.747-.254 1.574-.38 2.482-.38zM39.744 15h-2.802V8.694c0-.961-.24-1.649-.721-2.062-.48-.427-1.175-.641-2.082-.641h-2.603V15h-2.803V.986h2.803V4.59h2.603c1.908 0 3.316.347 4.224 1.04.92.681 1.381 1.702 1.381 3.064V15zm8.3-.9c.427 0 .828-.081 1.201-.241a2.62 2.62 0 00.981-.74c.28-.348.5-.795.66-1.342.174-.547.261-1.208.261-1.982s-.087-1.435-.26-1.982c-.16-.547-.38-.988-.66-1.321a2.54 2.54 0 00-.982-.761 3.017 3.017 0 00-1.2-.24c-.428 0-.828.08-1.202.24-.374.16-.7.413-.981.76-.28.334-.507.775-.68 1.322-.16.547-.241 1.208-.241 1.982s.08 1.435.24 1.982c.174.547.4.994.68 1.341.281.334.608.58.982.74.374.161.774.241 1.201.241zm0-9.91c.894 0 1.715.126 2.463.38.76.24 1.408.6 1.942 1.08a4.685 4.685 0 011.24 1.762c.308.694.461 1.489.461 2.383 0 .907-.153 1.708-.46 2.402a4.906 4.906 0 01-1.241 1.762c-.534.467-1.182.82-1.942 1.061-.748.254-1.569.38-2.463.38-.907 0-1.735-.126-2.482-.38a5.375 5.375 0 01-1.922-1.061 5.125 5.125 0 01-1.262-1.762c-.293-.694-.44-1.495-.44-2.402 0-.894.147-1.689.44-2.383a4.883 4.883 0 011.262-1.761 5.217 5.217 0 011.922-1.081c.747-.254 1.575-.38 2.482-.38zm-.8-2.303c0 .4-.14.754-.421 1.061-.267.294-.627.44-1.081.44-.454 0-.821-.146-1.101-.44a1.57 1.57 0 01-.4-1.061c0-.4.133-.748.4-1.041.28-.307.647-.46 1.1-.46.441 0 .802.153 1.082.46.28.293.42.64.42 1.04zm4.604 0c0 .4-.14.754-.42 1.061-.267.294-.628.44-1.082.44-.453 0-.82-.146-1.1-.44a1.57 1.57 0 01-.401-1.061c0-.4.133-.748.4-1.041.28-.307.648-.46 1.101-.46.44 0 .801.153 1.082.46.28.293.42.64.42 1.04zM67.468 15h-2.803V8.694c0-.961-.24-1.649-.721-2.062-.48-.427-1.175-.641-2.082-.641h-2.603V15h-2.803V4.59h5.406c1.908 0 3.316.347 4.224 1.04.92.681 1.381 1.702 1.381 3.064V15zm8.7-1.001a4.81 4.81 0 001.821-.34 7.156 7.156 0 001.682-.961l.8 1.2a4.648 4.648 0 01-.9.622c-.334.186-.7.347-1.101.48a8.64 8.64 0 01-1.221.28c-.427.08-.855.12-1.282.12-.947 0-1.815-.126-2.602-.38-.774-.24-1.435-.594-1.982-1.061a5.005 5.005 0 01-1.282-1.762c-.293-.694-.44-1.495-.44-2.402 0-.894.14-1.689.42-2.383.294-.707.694-1.294 1.202-1.761a5.092 5.092 0 011.841-1.081c.708-.254 1.489-.38 2.343-.38.8 0 1.555.12 2.262.36.707.24 1.321.593 1.842 1.06.52.454.934 1.008 1.241 1.662.307.654.46 1.395.46 2.223v1.4h-8.548c.16 1.109.54 1.903 1.141 2.383.614.48 1.382.721 2.303.721zm-.701-8.509c-.387 0-.748.074-1.081.22a2.316 2.316 0 00-.881.701c-.24.32-.44.734-.6 1.242-.148.507-.228 1.12-.241 1.842h5.606c0-.695-.08-1.295-.24-1.802-.16-.507-.374-.921-.641-1.242a2.209 2.209 0 00-.901-.72 2.336 2.336 0 00-1.021-.24zM8.609 23.986c1 0 1.895.113 2.682.34.801.214 1.475.534 2.022.961.547.414.968.928 1.262 1.542.293.6.44 1.288.44 2.062 0 .774-.147 1.468-.44 2.082a4.378 4.378 0 01-1.262 1.541c-.547.414-1.22.735-2.022.961-.787.214-1.681.32-2.682.32H4.304V38H1.401V23.986H8.61zm-4.305 1.502v6.806H8.61c1.054 0 1.868-.273 2.442-.82.587-.561.88-1.422.88-2.583 0-1.161-.293-2.015-.88-2.563-.574-.56-1.388-.84-2.442-.84H4.304zM18.12 27.79c0-1.308.407-2.336 1.221-3.083.814-.748 1.975-1.121 3.484-1.121a5.93 5.93 0 011.521.2c.52.133.981.3 1.382.5l-.601 1.302a4.857 4.857 0 00-.941-.4 3.412 3.412 0 00-1.161-.201c-.28 0-.547.053-.801.16a1.88 1.88 0 00-.68.5c-.188.214-.341.501-.461.862-.107.36-.16.787-.16 1.28v.201h3.103v1.401h-3.103V38H18.12v-8.609h-1.902V27.99h1.902v-.2zm13.11 9.31c.427 0 .828-.081 1.202-.241.373-.16.7-.407.98-.74.28-.348.501-.795.661-1.342.174-.547.26-1.208.26-1.982s-.086-1.435-.26-1.982c-.16-.547-.38-.988-.66-1.322-.28-.346-.608-.6-.981-.76a3.018 3.018 0 00-1.202-.24c-.427 0-.827.08-1.2.24-.375.16-.702.413-.982.76-.28.334-.507.775-.68 1.322-.16.547-.24 1.208-.24 1.982s.08 1.435.24 1.982c.173.547.4.994.68 1.341.28.334.608.58.981.74.374.161.774.241 1.201.241zm0-9.91c.895 0 1.716.126 2.463.38.76.24 1.408.6 1.942 1.08a4.686 4.686 0 011.241 1.762c.307.694.46 1.489.46 2.383 0 .907-.153 1.708-.46 2.402a4.908 4.908 0 01-1.241 1.762c-.534.467-1.181.82-1.942 1.061-.747.254-1.568.38-2.463.38-.907 0-1.735-.126-2.482-.38a5.375 5.375 0 01-1.922-1.061 5.125 5.125 0 01-1.261-1.762c-.294-.694-.44-1.495-.44-2.402 0-.894.146-1.689.44-2.383a4.882 4.882 0 011.261-1.761 5.216 5.216 0 011.922-1.081c.747-.254 1.575-.38 2.482-.38zm8.923 1.801H38.25V27.59h1.902v-3.204h2.802v3.204h3.104v1.401h-3.104v5.205c0 .507.054.941.16 1.302.12.346.274.634.461.86a1.982 1.982 0 001.481.641c.4 0 .788-.06 1.162-.18a5.76 5.76 0 00.94-.42l.601 1.3c-.4.2-.86.368-1.381.501-.507.134-1.014.2-1.522.2-1.508 0-2.669-.373-3.483-1.12-.814-.748-1.221-1.776-1.221-3.084v-5.205zm14.606 8.008a4.81 4.81 0 001.822-.34 7.156 7.156 0 001.682-.961l.8 1.2a4.648 4.648 0 01-.9.621c-.334.187-.7.348-1.101.481-.387.12-.794.214-1.221.28-.428.08-.855.12-1.282.12-.947 0-1.815-.126-2.602-.38-.775-.24-1.435-.594-1.982-1.061a5.005 5.005 0 01-1.282-1.762c-.293-.694-.44-1.495-.44-2.402 0-.894.14-1.689.42-2.383.294-.707.694-1.294 1.201-1.761a5.105 5.105 0 011.842-1.081c.708-.254 1.489-.38 2.343-.38.8 0 1.555.12 2.262.36.707.24 1.321.593 1.842 1.06.52.454.934 1.008 1.241 1.662.307.654.46 1.395.46 2.223v1.4h-8.548c.16 1.109.54 1.903 1.141 2.383.614.48 1.382.721 2.302.721zm-.7-8.509c-.387 0-.748.074-1.081.22a2.316 2.316 0 00-.881.701c-.24.32-.44.734-.6 1.242-.148.507-.228 1.12-.241 1.842h5.605c0-.694-.08-1.295-.24-1.802-.16-.508-.373-.921-.64-1.242a2.21 2.21 0 00-.901-.72 2.337 2.337 0 00-1.021-.24z" fill="#E1AEAD"/></svg>
